icon-themes/sifr_svg/cmd/lc_save.svg

<svg viewBox="0 0 24 24" xmlns="http://www.w3.org/2000/svg"><path d="m4 2c-1.108 0-2 .892-2 2v17c0 1.108.892 2 2 2h1v-9h14v9h1c1.108 0 2-.892 2-2v-17c0-1.108-.892-2-2-2zm2 3h12c.554 0 1 .446 1 1v4c0 .554-.446 1-1 1h-12c-.554 0-1-.446-1-1v-4c0-.554.446-1 1-1zm1 11v7h10v-7zm2 2h2v3h-2z" fill="#555753"/></svg>

<svg xmlns="http://www.w3.org/2000/svg" viewBox="0 0 24 24">
  <path
     style="fill:#555753"
     d="M 4,2 C 2.892,2 2,2.892 2,4 v 17 c 0,1.108 0.892,2 2,2 h 1 v -9 h 14 v 9 h 1 c 1.108,0 2,-0.892 2,-2 V 4 C 22,2.892 21.108,2 20,2 Z m 2,3 h 12 c 0.554,0 1,0.446 1,1 v 4 c 0,0.554 -0.446,1 -1,1 H 6 C 5.446,11 5,10.554 5,10 V 6 C 5,5.446 5.446,5 6,5 Z m 1,11 v 7 h 10 v -7 z m 2,2 h 2 v 3 H 9 Z"
     />
</svg>
